X:126
T:Killavil Fancy
T:The Ten Pound Float
M:4/4
L:1/8
R:reel
K:G
B2dB A2BA|GEE2 cEGE|DGBG A2BA|GEED EFGA|
B2dB A2BA|GEE2 cEGE|DGBG A2BA|GEED EFGA|
GABd edge|dBB2 dBAB|GABd edge|dBAB GFGA|
GABd edge|dBB2 dega|bgag egde|gedB AGEG|
